!!!OTL: Herr von Sain
!!!ARE: Europa, Mitteleuropa, Deutschland
!!!SCT: A0367
!!!YEM: Copyright 1995, estate of Helmut Schaffrath.
**kern
*ICvox
*Ivox
*M2/2
*k[f#c#]
*D:
{4d
=1
2.d
4d
=2
2.g
4a
=3
2b
2a
=4
2g
4r}
{4a
=5
2.b
4cc#
=6
2.dd
4cc#
=7
4.b
8a
4b
4g
=8
2a
4r}
{4a
=9
2a
2a
=10
2b
2a
=11
6.g
12f#
6d
6f#
3e
=12
2d
4r}
==
!!!AGN: Romanze, Ballade, Lied, Personenlied
!! Melodie aus einer Pap. Hs. der Stadtbibl. zu Aachen. 16. Jh.
!!    fol. 49. Abgedruckt Dr. L. Lerch, Niederrhein. Jahrb. f. Gesch.
!!    und Kunst. Bonn 1844. II. Bd. S. 341.
!!!ONB: ESAC (Essen Associative Code) Database: ALTDEU
!!!AMT: simple duple
!!!AIN: vox
!!!EED: Helmut Schaffrath
!!!EEV: 1.0
*-
